flaticon/travel/sun-protection.svg

<svg xmlns="http://www.w3.org/2000/svg" width="32" height="32" viewBox="0 0 24 24">
    <path d="M8.398438 15L7.5625 15C7.503906 14.636719 7.359375 14.300781 7.15625 14.011719L7.746094 13.421875C7.902344 13.261719 7.902344 13.011719 7.746094 12.855469 7.589844 12.699219 7.335938 12.699219 7.179688 12.855469L6.589844 13.445312C6.300781 13.238281 5.964844 13.097656 5.601562 13.035156L5.601562 12.199219C5.601562 11.980469 5.421875 11.800781 5.199219 11.800781 4.980469 11.800781 4.800781 11.980469 4.800781 12.199219L4.800781 13.035156C4.4375 13.097656 4.101562 13.238281 3.8125 13.445312L3.21875 12.855469C3.0625 12.699219 2.8125 12.699219 2.65625 12.855469 2.496094 13.011719 2.496094 13.261719 2.65625 13.421875L3.246094 14.011719C3.039062 14.300781 2.898438 14.636719 2.835938 15L2 15C1.777344 15 1.601562 15.179688 1.601562 15.398438 1.601562 15.621094 1.777344 15.800781 2 15.800781L2.835938 15.800781C2.898438 16.164062 3.039062 16.5 3.246094 16.789062L2.65625 17.378906C2.496094 17.535156 2.496094 17.789062 2.65625 17.945312 2.730469 18.023438 2.835938 18.0625 2.9375 18.0625 3.039062 18.0625 3.140625 18.023438 3.21875 17.945312L3.8125 17.355469C4.101562 17.558594 4.4375 17.703125 4.800781 17.765625L4.800781 18.601562C4.800781 18.820312 4.980469 19 5.199219 19 5.421875 19 5.601562 18.820312 5.601562 18.601562L5.601562 17.765625C5.964844 17.703125 6.300781 17.558594 6.589844 17.355469L7.179688 17.945312C7.257812 18.023438 7.359375 18.0625 7.460938 18.0625 7.566406 18.0625 7.667969 18.023438 7.746094 17.945312 7.902344 17.789062 7.902344 17.535156 7.746094 17.378906L7.152344 16.789062C7.359375 16.5 7.503906 16.164062 7.5625 15.800781L8.398438 15.800781C8.621094 15.800781 8.800781 15.621094 8.800781 15.398438 8.800781 15.179688 8.621094 15 8.398438 15zM5.199219 17C4.316406 17 3.601562 16.28125 3.601562 15.398438 3.601562 14.519531 4.316406 13.800781 5.199219 13.800781 6.082031 13.800781 6.800781 14.519531 6.800781 15.398438 6.800781 16.28125 6.082031 17 5.199219 17zM20.800781 9.800781L19.964844 9.800781C19.902344 9.4375 19.761719 9.101562 19.554688 8.8125L20.144531 8.21875C20.300781 8.0625 20.300781 7.8125 20.144531 7.65625 19.988281 7.496094 19.738281 7.496094 19.582031 7.65625L18.988281 8.246094C18.699219 8.039062 18.363281 7.898438 18 7.835938L18 7C18 6.777344 17.820312 6.601562 17.601562 6.601562 17.378906 6.601562 17.199219 6.777344 17.199219 7L17.199219 7.835938C16.835938 7.898438 16.5 8.039062 16.210938 8.246094L15.621094 7.65625C15.464844 7.496094 15.210938 7.496094 15.054688 7.65625 14.898438 7.8125 14.898438 8.0625 15.054688 8.21875L15.644531 8.8125C15.441406 9.101562 15.296875 9.4375 15.238281 9.800781L14.398438 9.800781C14.179688 9.800781 14 9.980469 14 10.199219 14 10.421875 14.179688 10.601562 14.398438 10.601562L15.234375 10.601562C15.296875 10.964844 15.441406 11.300781 15.644531 11.589844L15.054688 12.179688C14.898438 12.335938 14.898438 12.589844 15.054688 12.746094 15.132812 12.824219 15.234375 12.863281 15.335938 12.863281 15.4375 12.863281 15.542969 12.824219 15.621094 12.746094L16.210938 12.152344C16.5 12.359375 16.835938 12.503906 17.199219 12.5625L17.199219 13.398438C17.199219 13.621094 17.378906 13.800781 17.601562 13.800781 17.820312 13.800781 18 13.621094 18 13.398438L18 12.5625C18.363281 12.503906 18.699219 12.359375 18.988281 12.152344L19.578125 12.746094C19.65625 12.824219 19.761719 12.863281 19.863281 12.863281 19.964844 12.863281 20.066406 12.824219 20.144531 12.746094 20.300781 12.589844 20.300781 12.335938 20.144531 12.179688L19.554688 11.589844C19.761719 11.300781 19.902344 10.964844 19.964844 10.601562L20.800781 10.601562C21.019531 10.601562 21.199219 10.421875 21.199219 10.199219 21.199219 9.980469 21.019531 9.800781 20.800781 9.800781zM17.601562 11.800781C16.71875 11.800781 16 11.082031 16 10.199219 16 9.316406 16.71875 8.601562 17.601562 8.601562 18.480469 8.601562 19.199219 9.316406 19.199219 10.199219 19.199219 11.082031 18.480469 11.800781 17.601562 11.800781zM17.601562 11.800781"/>
    <path d="M 8.417969 8.199219 L 7.199219 8.199219 L 7.199219 4.199219 C 7.199219 3.980469 7.019531 3.800781 6.800781 3.800781 L 3.601562 3.800781 C 3.378906 3.800781 3.199219 3.980469 3.199219 4.199219 L 3.199219 8.199219 L 1.980469 8.199219 C 0.890625 8.199219 0 9.089844 0 10.179688 L 0 21.019531 C 0 22.109375 0.890625 23 1.980469 23 L 8.417969 23 C 9.511719 23 10.398438 22.109375 10.398438 21.019531 L 10.398438 10.179688 C 10.398438 9.089844 9.511719 8.199219 8.417969 8.199219 Z M 6.398438 4.601562 L 6.398438 6.199219 L 4 6.199219 L 4 4.601562 Z M 4 7 L 6.398438 7 L 6.398438 8.199219 L 4 8.199219 Z M 9.601562 21.019531 C 9.601562 21.671875 9.070312 22.199219 8.417969 22.199219 L 1.980469 22.199219 C 1.328125 22.199219 0.800781 21.671875 0.800781 21.019531 L 0.800781 10.179688 C 0.800781 9.53125 1.328125 9 1.980469 9 L 8.417969 9 C 9.070312 9 9.601562 9.53125 9.601562 10.179688 Z M 9.601562 21.019531"/>
    <path d="M5.601562 5.398438C5.601562 5.621094 5.421875 5.800781 5.199219 5.800781 4.980469 5.800781 4.800781 5.621094 4.800781 5.398438 4.800781 5.179688 4.980469 5 5.199219 5 5.421875 5 5.601562 5.179688 5.601562 5.398438zM24 2.601562C24 1.71875 23.28125 1 22.398438 1 21.921875 1 21.492188 1.210938 21.199219 1.542969 20.90625 1.210938 20.476562 1 20 1 19.523438 1 19.09375 1.210938 18.800781 1.542969 18.507812 1.210938 18.078125 1 17.601562 1 17.121094 1 16.691406 1.210938 16.398438 1.542969 16.105469 1.210938 15.675781 1 15.199219 1 14.722656 1 14.292969 1.210938 14 1.542969 13.707031 1.210938 13.277344 1 12.800781 1 11.953125 1 11.257812 1.660156 11.203125 2.492188 11.1875 2.546875 11.183594 2.605469 11.195312 2.664062L11.226562 2.859375C11.230469 2.890625 11.234375 2.925781 11.238281 2.9375L14 18.636719 14 22.601562C14 22.820312 14.179688 23 14.398438 23L20.398438 23C20.621094 23 20.800781 22.820312 20.800781 22.601562L20.800781 18.640625 23.910156 3.113281C23.96875 2.941406 24 2.769531 24 2.601562zM12 2.601562C12 2.160156 12.359375 1.800781 12.800781 1.800781 13.242188 1.800781 13.601562 2.160156 13.601562 2.601562 13.601562 2.820312 13.777344 3 14 3 14.222656 3 14.398438 2.820312 14.398438 2.601562 14.398438 2.160156 14.757812 1.800781 15.199219 1.800781 15.640625 1.800781 16 2.160156 16 2.601562 16 2.820312 16.179688 3 16.398438 3 16.621094 3 16.800781 2.820312 16.800781 2.601562 16.800781 2.160156 17.160156 1.800781 17.601562 1.800781 18.042969 1.800781 18.398438 2.160156 18.398438 2.601562 18.398438 2.820312 18.578125 3 18.800781 3 19.019531 3 19.199219 2.820312 19.199219 2.601562 19.199219 2.160156 19.558594 1.800781 20 1.800781 20.441406 1.800781 20.800781 2.160156 20.800781 2.601562 20.800781 2.820312 20.980469 3 21.199219 3 21.421875 3 21.601562 2.820312 21.601562 2.601562 21.601562 2.160156 21.957031 1.800781 22.398438 1.800781 22.839844 1.800781 23.199219 2.160156 23.199219 2.601562 23.199219 2.6875 23.183594 2.773438 23.148438 2.871094 23.140625 2.890625 23.136719 2.910156 23.132812 2.929688L22.957031 3.800781 12.203125 3.800781 12.023438 2.777344 12 2.628906C12 2.621094 12 2.609375 12 2.601562zM14.800781 19L20 19 20 20.199219 14.800781 20.199219zM20.074219 18.199219L14.734375 18.199219 12.34375 4.601562 22.796875 4.601562zM14.800781 22.199219L14.800781 21 20 21 20 22.199219zM14.800781 22.199219"/>
</svg>

<svg xmlns="http://www.w3.org/2000/svg" width="32" height="32" viewBox="0 0 24 24">
    <path d="M8.398 15h-.835a2.38 2.38 0 0 0-.407-.988l.59-.59a.4.4 0 0 0-.566-.567l-.59.59a2.387 2.387 0 0 0-.988-.41V12.2a.401.401 0 0 0-.801 0v.836c-.364.063-.7.203-.989.41l-.593-.59a.396.396 0 0 0-.563 0 .394.394 0 0 0 0 .567l.59.59c-.207.289-.348.625-.41.988H2a.398.398 0 0 0-.398.398c0 .223.175.403.398.403h.836c.062.363.203.699.41.988l-.59.59a.394.394 0 0 0 0 .566.396.396 0 0 0 .563 0l.594-.59c.289.204.624.348.988.41v.837a.4.4 0 0 0 .8 0v-.836c.364-.063.7-.207.989-.41l.59.59a.399.399 0 0 0 .566 0 .4.4 0 0 0 0-.567l-.594-.59c.207-.289.352-.625.41-.988h.836a.401.401 0 0 0 0-.8zM5.2 17a1.6 1.6 0 0 1 0-3.2c.883 0 1.602.72 1.602 1.598C6.8 16.281 6.082 17 5.199 17zm0 0M20.8 9.8h-.835a2.387 2.387 0 0 0-.41-.988l.59-.593a.396.396 0 0 0 0-.563.39.39 0 0 0-.563 0l-.594.59a2.387 2.387 0 0 0-.988-.41V7a.398.398 0 0 0-.398-.398.398.398 0 0 0-.403.398v.836c-.363.062-.699.203-.988.41l-.59-.59a.394.394 0 0 0-.566 0 .396.396 0 0 0 0 .563l.59.594a2.38 2.38 0 0 0-.407.988h-.84a.4.4 0 0 0 0 .8h.836c.063.364.207.7.41.989l-.59.59a.4.4 0 0 0 .567.566l.59-.594c.289.207.625.352.988.41v.836a.401.401 0 0 0 .8 0l.001-.835c.363-.06.7-.204.988-.41l.59.593a.405.405 0 0 0 .285.117.4.4 0 0 0 .281-.684l-.59-.59c.208-.288.348-.624.41-.987h.837a.401.401 0 0 0 0-.801zm-3.198 2A1.604 1.604 0 0 1 16 10.2a1.6 1.6 0 0 1 3.2 0c0 .882-.72 1.6-1.598 1.6zm0 0"/>
    <path d="M8.418 8.2H7.199v-4a.4.4 0 0 0-.398-.4H3.6a.401.401 0 0 0-.402.4v4H1.98C.89 8.2 0 9.09 0 10.18v10.84C0 22.11.89 23 1.98 23h6.438c1.094 0 1.98-.89 1.98-1.98V10.18c0-1.09-.886-1.98-1.98-1.98zm-2.02-3.598v1.597H4V4.602zM4 7h2.398v1.2H4zm5.602 14.02c0 .652-.532 1.18-1.184 1.18H1.98c-.652 0-1.18-.528-1.18-1.18V10.18C.8 9.53 1.329 9 1.98 9h6.438c.652 0 1.184.531 1.184 1.18zm0 0"/>
    <path d="M5.602 5.398a.401.401 0 1 1 0 0zm0 0M24 2.602C24 1.719 23.281 1 22.398 1c-.476 0-.906.21-1.199.543a1.598 1.598 0 0 0-2.398 0 1.598 1.598 0 0 0-2.403 0 1.598 1.598 0 0 0-2.398 0 1.598 1.598 0 0 0-2.797.95.364.364 0 0 0-.008.171l.032.195c.003.032.007.067.011.079L14 18.636v3.965a.4.4 0 0 0 .398.398h6c.223 0 .403-.18.403-.398V18.64l3.11-15.528c.058-.172.089-.343.089-.511zm-12 0a.802.802 0 0 1 1.602 0 .398.398 0 1 0 .796 0 .802.802 0 0 1 1.602 0 .4.4 0 0 0 .8 0 .799.799 0 1 1 1.598 0 .401.401 0 0 0 .801 0 .802.802 0 0 1 1.602 0 .4.4 0 0 0 .8 0 .799.799 0 1 1 1.547.27c-.007.019-.011.038-.015.058l-.176.87H12.203l-.18-1.023L12 2.63v-.027zM14.8 19H20v1.2h-5.2zm5.274-.8h-5.34l-2.39-13.598h10.453zm-5.273 4V21H20v1.2zm0 0"/>
</svg>
